X:70
T:Valse  Ollu (A. Ollu)
C:Trad 1, 112
M:3/4
L:1/8
K:C
AB cd ef|e2d2c2|dG Bd eg|e2d2B2|\
AB cd ef|e2d2c2|dG Bd ed|c2B2G2:|
L:1/4\
|:A>Bc|A>Bc|B>cd|cBG|\
A>Bc|A>Bc|B>cd|cBG:|**
